icon-themes/breeze_svg/cmd/sc_saveas.svg

<svg viewBox="0 0 16 16" xmlns="http://www.w3.org/2000/svg">/&gt;<path d="m2 2v12h1 1 3v-1h-1-1v-3h1 1 1v-1h-1-2-1.03125v4h-.96875v-10h1 1v3 1h2 4v-1-3h.28125l1.71875 1.71875v.28125 2h1v-2.71875l-2.28125-2.28125h-.03125-.6875-7-1zm4 1h1.90625v3h-1.90625zm6 5-1 1-1 1-2 2v1 1h2l1-1 1-1 1-1 1-1zm-.310547 1.6894531.591797.5917969-1.6875 1.6875v.015625l-1.28125 1.296875-.59375-.59375z" fill="#4d4d4d"/></svg>

<svg xmlns="http://www.w3.org/2000/svg" viewBox="0 0 16 16">
     />
 <path 
     style="fill:#4d4d4d" 
     d="M 2 2 L 2 14 L 3 14 L 4 14 L 7 14 L 7 13 L 6 13 L 5 13 L 5 10 L 6 10 L 7 10 L 8 10 L 8 9 L 7 9 L 5 9 L 3.96875 9 L 3.96875 13 L 3 13 L 3 3 L 4 3 L 5 3 L 5 6 L 5 7 L 7 7 L 11 7 L 11 6 L 11 3 L 11.28125 3 L 13 4.71875 L 13 5 L 13 7 L 14 7 L 14 4.28125 L 11.71875 2 L 11.6875 2 L 11 2 L 4 2 L 3 2 L 2 2 z M 6 3 L 7.90625 3 L 7.90625 6 L 6 6 L 6 3 z M 12 8 L 11 9 L 10 10 L 8 12 L 8 13 L 8 14 L 10 14 L 11 13 L 12 12 L 13 11 L 14 10 L 12 8 z M 11.689453 9.6894531 L 12.28125 10.28125 L 10.59375 11.96875 L 10.59375 11.984375 L 9.3125 13.28125 L 8.71875 12.6875 L 11.689453 9.6894531 z "
     />
 </svg>
